src/main/resources/icons/AllIcons/diff/magicResolveToolbar.svg

<svg xmlns="http://www.w3.org/2000/svg" width="16" height="16" viewBox="0 0 16 16"><rect id="frame" width="16" height="16" fill="none"/><g fill="#6E6E6E" fill-rule="evenodd"><path d="M13.51 10.318l-.72.719-1.438-1.439.719-.719z"/><path d="M13 6h2V5h-2z"/><path d="M10 3h1V1h-1z"/><path d="M4.877 3.123l.719-.72 1.439 1.439-.72.719z"/><path d="M1 13l2 2 9-9-2-2-9 9zm7-6l2-2 1 1-2 2-1-1z"/></g></svg>

<!-- Copyright 2000-2021 JetBrains s.r.o. Use of this source code is governed by the Apache 2.0 license that can be found in the LICENSE file. -->
<svg xmlns="http://www.w3.org/2000/svg" width="16" height="16" viewBox="0 0 16 16">
  <g fill="none" fill-rule="evenodd">
    <polygon fill="#6E6E6E" points="13.51 10.318 12.79 11.037 11.352 9.598 12.071 8.879"/>
    <polygon fill="#6E6E6E" points="13 6 15 6 15 5 13 5"/>
    <polygon fill="#6E6E6E" points="10 3 11 3 11 1 10 1"/>
    <polygon fill="#6E6E6E" points="4.877 3.123 5.596 2.403 7.035 3.842 6.315 4.561"/>
    <path fill="#6E6E6E" d="M1,13 L3,15 L12,6 L10,4 L1,13 Z M8,7 L10,5 L11,6 L9,8 L8,7 Z"/>
  </g>
</svg>
